assets/image/user.svg

<svg width="249" height="235" viewBox="0 0 249 235" xmlns="http://www.w3.org/2000/svg"><title>use</title><g fill-rule="evenodd"><path d="M9.954 234.305h228.441c3.051 0 5.896-1.246 7.805-3.416 1.659-1.882 2.393-4.27 2.078-6.723-5.357-41.734-31.019-76.511-66.15-95.053-14.849 14.849-35.348 24.046-57.953 24.046-22.605 0-43.105-9.197-57.953-24.046C31.09 147.65 5.423 182.432.071 224.166c-.315 2.453.424 4.846 2.078 6.723 1.909 2.17 4.754 3.416 7.805 3.416z"/><path d="M72.699 120.09a72.826 72.826 0 0 0 4.166 4.019c12.586 11.259 29.137 18.166 47.309 18.166 18.172 0 34.723-6.913 47.309-18.166a72.838 72.838 0 0 0 4.166-4.019c1.327-1.398 2.622-2.828 3.84-4.329 9.861-12.211 15.8-27.717 15.8-44.6 0-39.216-31.906-71.116-71.116-71.116S53.059 31.95 53.059 71.16c0 16.883 5.939 32.39 15.8 44.6 1.213 1.502 2.507 2.927 3.84 4.33z"/></g></svg>

<?xml version="1.0" encoding="UTF-8" standalone="no"?>
<svg width="249px" height="235px" viewBox="0 0 249 235" version="1.1" xmlns="http://www.w3.org/2000/svg" xmlns:xlink="http://www.w3.org/1999/xlink">
    <!-- Generator: Sketch 39 (31667) - http://www.bohemiancoding.com/sketch -->
    <title>use</title>
    <desc>Created with Sketch.</desc>
    <defs></defs>
    <g id="Page-1" stroke="none" stroke-width="1" fill="none" fill-rule="evenodd">
        <g id="use" fill="#000000">
            <path d="M9.954,234.305 L238.395,234.305 C241.446,234.305 244.291,233.059 246.2,230.889 C247.859,229.007 248.593,226.619 248.278,224.166 C242.921,182.432 217.259,147.655 182.128,129.113 C167.279,143.962 146.78,153.159 124.175,153.159 C101.57,153.159 81.07,143.962 66.222,129.113 C31.09,147.65 5.423,182.432 0.071,224.166 C-0.244,226.619 0.495,229.012 2.149,230.889 C4.058,233.059 6.903,234.305 9.954,234.305 L9.954,234.305 Z" id="Shape"></path>
            <path d="M72.699,120.09 C74.032,121.488 75.424,122.82 76.865,124.109 C89.451,135.368 106.002,142.275 124.174,142.275 C142.346,142.275 158.897,135.362 171.483,124.109 C172.924,122.82 174.317,121.487 175.649,120.09 C176.976,118.692 178.271,117.262 179.489,115.761 C189.35,103.55 195.289,88.044 195.289,71.161 C195.289,31.945 163.383,0.045 124.173,0.045 C84.963,0.045 53.059,31.95 53.059,71.16 C53.059,88.043 58.998,103.55 68.859,115.76 C70.072,117.262 71.366,118.687 72.699,120.09 L72.699,120.09 Z" id="Shape"></path>
        </g>
    </g>
</svg>
